;FLAVOR:Marlin
;TIME:5087
;Filament used: 2.66152m
;Layer height: 0.2
;MINX:46.031
;MINY:68.99
;MINZ:0.2
;MAXX:188.979
;MAXY:166.005
;MAXZ:4
;Generated with Cura_SteamEngine 4.11.0
M140 S60
M105
M190 S60
M104 S200
M105
M109 S200
M82 ;absolute extrusion mode
M201 X500.00 Y500.00 Z100.00 E5000.00 ;Setup machine max acceleration
M203 X500.00 Y500.00 Z10.00 E50.00 ;Setup machine max feedrate
M204 P500.00 R1000.00 T500.00 ;Setup Print/Retract/Travel acceleration
M205 X8.00 Y8.00 Z0.40 E5.00 ;Setup Jerk
M220 S100 ;Reset Feedrate
M221 S100 ;Reset Flowrate

G28 ;Home

G92 E0 ;Reset Extruder
G1 Z2.0 F3000 ;Move Z Axis up
G1 X10.1 Y20 Z0.28 F5000.0 ;Move to start position
G1 X10.1 Y200.0 Z0.28 F1500.0 E15 ;Draw the first line
G1 X10.4 Y200.0 Z0.28 F5000.0 ;Move to side a little
G1 X10.4 Y20 Z0.28 F1500.0 E30 ;Draw the second line
G92 E0 ;Reset Extruder
G1 Z2.0 F3000 ;Move Z Axis up

G92 E0
G92 E0
G1 F1500 E-6.5
;LAYER_COUNT:20
;LAYER:0
M107
G0 F6000 X67.988 Y87.166 Z0.2
;TYPE:SKIRT
G0 X69.024 Y86.401 E0.04283
G1 X69.539 Y86.04 E0.06375
G1 X72.289 Y84.155 E0.17464
G1 X72.483 Y84.025 E0.18241
G1 X74.238 Y82.876 E0.25218
G1 X74.43 Y82.753 E0.25976
G1 X77.342 Y80.933 E0.37398
G1 X78.198 Y80.414 E0.40727
G1 X78.422 Y80.281 E0.41594
G1 X78.717 Y80.113 E0.42723
G1 X82.035 Y78.254 E0.55373
G1 X82.682 Y77.901 E0.57824
G1 X82.955 Y77.756 E0.58852
G1 X83.597 Y77.43 E0.61247
G1 X86.657 Y75.92 E0.72596
G1 X87.225 Y75.649 E0.74689
G1 X87.515 Y75.516 E0.75751
G1 X88.214 Y75.207 E0.78292
G1 X91.119 Y73.978 E0.88784
G1 X91.717 Y73.733 E0.90933
G1 X92.061 Y73.599 E0.92161
G1 X93.233 Y73.167 E0.96315
G1 X95.679 Y72.312 E1.04934
G1 X96.27 Y72.115 E1.07006
G1 X96.615 Y72.007 E1.08208
G1 X97.856 Y71.64 E1.12512
G1 X98.069 Y71.579 E1.13249
G1 X100.448 Y70.928 E1.21453
G1 X101.184 Y70.738 E1.23981
G1 X101.52 Y70.657 E1.2513
G1 X101.889 Y70.574 E1.26388
G1 X102.178 Y70.513 E1.27371
G1 X105.09 Y69.941 E1.37241
G1 X105.853 Y69.802 E1.39821
G1 X106.284 Y69.731 E1.41273
G1 X106.59 Y69.688 E1.42301
G1 X107.027 Y69.633 E1.43766
G1 X109.786 Y69.306 E1.53007
G1 X110.521 Y69.23 E1.55465
G1 X110.958 Y69.193 E1.56923
G1 X111.259 Y69.174 E1.57926
G1 X111.741 Y69.15 E1.59531
G1 X113.873 Y69.064 E1.66628
G1 X114.984 Y69.031 E1.70325
G1 X116.943 Y68.994 E1.76842
G1 X117.34 Y68.99 E1.78162
G1 X117.573 Y68.99 E1.78937
G1 X118.423 Y69 E1.81765
G1 X120.551 Y69.049 E1.88844
G1 X120.76 Y69.056 E1.8954
G1 X122.773 Y69.142 E1.96241
G1 X125.954 Y69.335 E2.06841
G1 X126.67 Y69.388 E2.09229
G1 X127.332 Y69.457 E2.11442
G1 X128.362 Y69.597 E2.149
G1 X128.568 Y69.627 E2.15592
G1 X130.754 Y69.968 E2.22951
G1 X131.368 Y70.071 E2.25021
G1 X132.043 Y70.206 E2.27311
G1 X133.119 Y70.458 E2.30987
G1 X135.852 Y71.141 E2.40356
G1 X136.546 Y71.325 E2.42744
G1 X136.823 Y71.403 E2.43701
G1 X137.123 Y71.491 E2.44741
G1 X137.463 Y71.597 E2.45926
G1 X140.978 Y72.753 E2.58233
G1 X141.395 Y72.897 E2.597
G1 X141.719 Y73.015 E2.60847
G1 X142.814 Y73.432 E2.64744
G1 X143.018 Y73.512 E2.65473
G1 X145.863 Y74.661 E2.75678
G1 X146.488 Y74.924 E2.77933
G1 X146.786 Y75.055 E2.79016
G1 X147.791 Y75.515 E2.82692
G1 X147.979 Y75.603 E2.83382
G1 X151.685 Y77.386 E2.97061
G1 X152.015 Y77.551 E2.98288
G1 X152.336 Y77.718 E2.99492
G1 X153.51 Y78.354 E3.03932
G1 X153.702 Y78.461 E3.04664
G1 X157.217 Y80.457 E3.18108
G1 X157.409 Y80.568 E3.18846
G1 X159.164 Y81.612 E3.25637
G1 X159.348 Y81.724 E3.26354
G1 X161.957 Y83.346 E3.36572
G1 X163.703 Y84.475 E3.43487
G1 X163.875 Y84.589 E3.44174
G1 X166.521 Y86.375 E3.54791
G1 X167.31 Y86.925 E3.5799
G1 X167.577 Y87.117 E3.59084
G1 X170.342 Y89.171 E3.7054
G1 X171.002 Y89.677 E3.73306
G1 X171.23 Y89.857 E3.74272
G1 X171.734 Y90.266 E3.76431
G1 X173.776 Y91.961 E3.85258
G1 X174.358 Y92.458 E3.87803
G1 X174.605 Y92.675 E3.88897
G1 X175.451 Y93.446 E3.92704
G1 X177.2 Y95.091 E4.0069
G1 X177.439 Y95.322 E4.01795
G1 X177.707 Y95.59 E4.03056
G1 X178.633 Y96.549 E4.0749
G1 X178.789 Y96.714 E4.08245
G1 X180.035 Y98.059 E4.14343
G1 X180.619 Y98.707 E4.17245
G1 X180.825 Y98.942 E4.18284
G1 X181.135 Y99.31 E4.19884
G1 X181.297 Y99.509 E4.20738
G1 X182.864 Y101.478 E4.29108
G1 X183.264 Y101.995 E4.31282
G1 X183.453 Y102.247 E4.32329
G1 X183.574 Y102.413 E4.33013
G1 X183.726 Y102.627 E4.33886
G1 X183.945 Y102.943 E4.35164
G1 X185.136 Y104.698 E4.42219
G1 X185.622 Y105.435 E4.45155
G1 X186.109 Y106.249 E4.4831
G1 X186.553 Y107.072 E4.5142
G1 X186.824 Y107.594 E4.53376
G1 X187.156 Y108.254 E4.55834
G1 X187.541 Y109.109 E4.58952
G1 X187.734 Y109.628 E4.60794
G1 X187.84 Y109.937 E4.61881
G1 X187.961 Y110.31 E4.63185
G1 X188.172 Y111.005 E4.65601
G1 X188.415 Y111.848 E4.68519
G1 X188.636 Y112.759 E4.71637
G1 X188.773 Y113.636 E4.74589
G1 X188.8 Y113.871 E4.75376
G1 X188.83 Y114.168 E4.76368
G1 X188.858 Y114.488 E4.77437
G1 X188.911 Y115.18 E4.79745
G1 X188.96 Y115.946 E4.82298
G1 X188.979 Y116.883 E4.85415
G1 X188.921 Y117.804 E4.88485
G1 X188.868 Y118.286 E4.90097
G1 X188.826 Y118.607 E4.91174
G1 X188.704 Y119.471 E4.94076
G1 X188.606 Y120.109 E4.96223
G1 X188.425 Y121.029 E4.99342
G1 X188.241 Y121.695 E5.0164
G1 X187.865 Y122.903 E5.05848
G1 X187.688 Y123.434 E5.0771
G1 X187.454 Y124.11 E5.10089
G1 X187.084 Y125.039 E5.13415
G1 X186.941 Y125.352 E5.14559
G1 X186.704 Y125.848 E5.16388
G1 X186.107 Y127.065 E5.20896
G1 X185.863 Y127.547 E5.22693
G1 X185.524 Y128.167 E5.25043
G1 X184.946 Y129.147 E5.28827
G1 X184.842 Y129.32 E5.29499
G1 X184.202 Y130.361 E5.33563
G1 X183.87 Y130.885 E5.35626
G1 X183.674 Y131.184 E5.36815
G1 X183.047 Y132.104 E5.40518
G1 X181.895 Y133.73 E5.47146
G1 X181.428 Y134.371 E5.49784
G1 X181.036 Y134.877 E5.51913
G1 X180.381 Y135.671 E5.55337
G1 X179.252 Y136.997 E5.61129
G1 X178.804 Y137.509 E5.63392
G1 X178.593 Y137.743 E5.6444
G1 X177.871 Y138.52 E5.67967
G1 X176.255 Y140.206 E5.75735
G1 X176.1 Y140.364 E5.76471
G1 X174.653 Y141.814 E5.83284
G1 X174.494 Y141.971 E5.84028
G1 X172.535 Y143.854 E5.93065
G1 X171.889 Y144.459 E5.96009
G1 X171.689 Y144.641 E5.96908
G1 X171.274 Y145.01 E5.98755
G1 X169.395 Y146.643 E6.07035
G1 X168.866 Y147.09 E6.09339
G1 X168.649 Y147.269 E6.10274
G1 X168.457 Y147.423 E6.11093
G1 X168.215 Y147.611 E6.12112
G1 X167.899 Y147.85 E6.1343
G1 X166.159 Y149.142 E6.20638
G1 X165.246 Y149.8 E6.24381
G1 X164.974 Y149.99 E6.25485
G1 X162.852 Y151.424 E6.34003
G1 X162.684 Y151.535 E6.34673
G1 X161.019 Y152.615 E6.41274
G1 X159.282 Y153.702 E6.48089
G1 X159.097 Y153.815 E6.4881
G1 X157.383 Y154.841 E6.55454
G1 X157.204 Y154.946 E6.56144
G1 X155.314 Y156.028 E6.63388
G1 X154.534 Y156.459 E6.66352
G1 X154.074 Y156.704 E6.68085
G1 X152.667 Y157.429 E6.7335
G1 X152.474 Y157.526 E6.74068
G1 X150.733 Y158.379 E6.80516
G1 X150.551 Y158.466 E6.81187
G1 X149.584 Y158.918 E6.84737
G1 X149.383 Y159.01 E6.85473
G1 X147.659 Y159.774 E6.91745
G1 X146.512 Y160.259 E6.95886
G1 X146.31 Y160.342 E6.96613
G1 X144.51 Y161.059 E7.03057
G1 X144.294 Y161.142 E7.03827
G1 X143.396 Y161.478 E7.07016
G1 X143.204 Y161.548 E7.07695
G1 X141.369 Y162.196 E7.14168
G1 X141.165 Y162.266 E7.14885
G1 X140.344 Y162.538 E7.17762
G1 X140.12 Y162.609 E7.18544
G1 X138.154 Y163.214 E7.25385
G1 X137.937 Y163.279 E7.26139
G1 X136.917 Y163.57 E7.29666
G1 X135.871 Y163.853 E7.33271
G1 X135.411 Y163.97 E7.34849
G1 X133.848 Y164.34 E7.40191
G1 X132.795 Y164.574 E7.43779
G1 X132.542 Y164.627 E7.44639
G1 X132.118 Y164.71 E7.46076
G1 X130.778 Y164.959 E7.50609
G1 X129.965 Y165.098 E7.53352
G1 X129.658 Y165.146 E7.54386
G1 X128.689 Y165.282 E7.5764
G1 X127.555 Y165.425 E7.61442
G1 X126.476 Y165.546 E7.65053
G1 X126.078 Y165.585 E7.66383
G1 X124.12 Y165.739 E7.72916
G1 X123.109 Y165.806 E7.76286
G1 X122.806 Y165.822 E7.77295
G1 X122.312 Y165.84 E7.78939
G1 X116.969 Y165.994 E7.96717
G1 X116.232 Y166.005 E7.99169
G1 X115.908 Y166.005 E8.00246
G1 X115.07 Y165.992 E8.03034
G1 X109.777 Y165.842 E8.20646
G1 X109.335 Y165.822 E8.22117
G1 X108.167 Y165.749 E8.2601
G1 X107.972 Y165.735 E8.2666
G1 X106.409 Y165.608 E8.31876
G1 X105.608 Y165.533 E8.34551
G1 X105.317 Y165.502 E8.35525
G1 X104.765 Y165.435 E8.37374
G1 X103.422 Y165.259 E8.41879
G1 X102.688 Y165.153 E8.44346
G1 X102.379 Y165.104 E8.45386
G1 X101.92 Y165.022 E8.46937
G1 X101.634 Y164.965 E8.47907
G1 X98.647 Y164.344 E8.58054
G1 X97.88 Y164.175 E8.60667
G1 X97.473 Y164.077 E8.62059
G1 X96.914 Y163.929 E8.63982
G1 X93.597 Y162.987 E8.75451
G1 X93.042 Y162.821 E8.77378
G1 X92.729 Y162.722 E8.7847
G1 X91.831 Y162.424 E8.81616
G1 X88.828 Y161.374 E8.92197
G1 X87.995 Y161.071 E8.95146
G1 X87.696 Y160.957 E8.9621
G1 X87.082 Y160.712 E8.98409
G1 X83.759 Y159.336 E9.10371
G1 X83.089 Y159.047 E9.12798
G1 X82.834 Y158.933 E9.13727
G1 X82.179 Y158.63 E9.16127
G1 X79.059 Y157.138 E9.2763
G1 X78.412 Y156.818 E9.30031
G1 X78.132 Y156.674 E9.31078
G1 X77.437 Y156.304 E9.33697
G1 X74.549 Y154.722 E9.44649
G1 X73.985 Y154.403 E9.46804
G1 X73.687 Y154.228 E9.47954
G1 X72.793 Y153.683 E9.51436
G1 X70.233 Y152.07 E9.615
G1 X69.673 Y151.707 E9.63719
G1 X69.39 Y151.518 E9.64851
G1 X69.1 Y151.317 E9.66025
G1 X68.852 Y151.14 E9.67038
G1 X66.296 Y149.26 E9.77591
G1 X65.726 Y148.829 E9.79968
G1 X65.488 Y148.645 E9.80969
G1 X65.313 Y148.505 E9.81714
G1 X65.105 Y148.334 E9.8261
G1 X64.81 Y148.085 E9.83894
G1 X63.255 Y146.752 E9.90706
G1 X62.389 Y145.985 E9.94554
G1 X62.157 Y145.772 E9.95601
G1 X57.201 Y141.136 E10.18173
G1 X56.508 Y140.469 E10.21372
G1 X56.298 Y140.262 E10.22352
G1 X54.948 Y138.875 E10.2879
G1 X54.351 Y138.246 E10.31674
G1 X54.084 Y137.954 E10.3299
G1 X53.896 Y137.738 E10.33943
G1 X53.472 Y137.236 E10.36128
G1 X52.351 Y135.879 E10.41983
G1 X51.899 Y135.317 E10.44381
G1 X51.509 Y134.801 E10.46533
G1 X50.955 Y134.021 E10.49715
G1 X50.23 Y132.967 E10.5397
G1 X49.833 Y132.374 E10.56343
G1 X49.344 Y131.571 E10.5947
G1 X48.901 Y130.766 E10.62526
G1 X48.446 Y129.91 E10.6575
G1 X48.135 Y129.305 E10.68013
G1 X47.64 Y128.195 E10.72055
G1 X47.474 Y127.749 E10.73638
G1 X47.316 Y127.294 E10.7524
G1 X47.069 Y126.562 E10.7781
G1 X46.854 Y125.895 E10.80141
G1 X46.605 Y124.991 E10.83259
G1 X46.478 Y124.355 E10.85416
G1 X46.423 Y124.03 E10.86513
G1 X46.38 Y123.754 E10.87442
G1 X46.284 Y123.072 E10.89732
G1 X46.196 Y122.383 E10.92043
G1 X46.135 Y121.767 E10.94101
G1 X46.1 Y121.247 E10.95835
G1 X46.084 Y120.913 E10.96947
G1 X46.051 Y120.042 E10.99846
G1 X46.031 Y119.312 E11.02275
G1 X46.032 Y118.681 E11.04374
G1 X46.054 Y117.948 E11.06813
G1 X46.067 Y117.657 E11.07782
G1 X46.11 Y116.896 E11.10317
G1 X46.169 Y116.219 E11.12577
G1 X46.282 Y115.268 E11.15762
G1 X46.328 Y114.925 E11.16913
G1 X46.43 Y114.249 E11.19187
G1 X46.572 Y113.491 E11.21752
G1 X46.697 Y112.978 E11.23508
G1 X46.843 Y112.438 E11.25369
G1 X46.916 Y112.181 E11.26257
G1 X47.083 Y111.618 E11.28211
G1 X47.402 Y110.695 E11.31459
G1 X47.684 Y109.983 E11.34006
G1 X47.817 Y109.663 E11.35158
G1 X48.04 Y109.148 E11.37025
G1 X48.314 Y108.562 E11.39177
G1 X48.732 Y107.734 E11.42262
G1 X48.887 Y107.439 E11.4337
G1 X49.2 Y106.863 E11.4555
G1 X49.386 Y106.533 E11.4681
G1 X49.555 Y106.246 E11.47918
G1 X49.695 Y106.016 E11.48814
G1 X50.165 Y105.263 E11.51766
G1 X50.496 Y104.749 E11.53799
G1 X50.864 Y104.213 E11.55962
G1 X51.482 Y103.37 E11.59438
G1 X52.977 Y101.394 E11.6768
G1 X53.406 Y100.842 E11.70005
G1 X53.827 Y100.332 E11.72204
G1 X54.443 Y99.633 E11.75303
G1 X56.599 Y97.253 E11.85984
G1 X56.957 Y96.867 E11.87735
G1 X57.216 Y96.597 E11.8898
G1 X58.033 Y95.776 E11.92832
G1 X60.308 Y93.556 E12.03404
G1 X60.738 Y93.148 E12.05376
G1 X60.986 Y92.92 E12.06496
G1 X61.714 Y92.272 E12.09738
G1 X64.055 Y90.243 E12.20042
G1 X64.462 Y89.9 E12.21812
G1 X64.727 Y89.684 E12.22949
G1 X65.641 Y88.962 E12.26823
G1 X67.988 Y87.166 E12.36652
G0 F6000 X68.231 Y87.484
G1 F1200 X69.026 Y86.893 E12.39947
G1 X69.254 Y86.728 E12.40883
G1 X69.765 Y86.37 E12.42958
G1 X72.515 Y84.485 E12.54047
G1 X72.702 Y84.36 E12.54796
G1 X74.457 Y83.211 E12.61772
G1 X74.642 Y83.092 E12.62504
G1 X77.549 Y81.275 E12.73906
G1 X78.405 Y80.756 E12.77236
G1 X78.817 Y80.516 E12.78822
G1 X82.119 Y78.664 E12.91413
G1 X82.873 Y78.252 E12.94271
G1 X83.137 Y78.113 E12.95264
G1 X83.774 Y77.789 E12.97641
G1 X86.83 Y76.281 E13.08975
G1 X87.398 Y76.01 E13.11068
G1 X87.676 Y75.882 E13.12086
G1 X88.535 Y75.504 E13.15208
G1 X91.393 Y74.297 E13.25526
G1 X91.868 Y74.103 E13.27233
G1 X92.199 Y73.974 E13.28414
G1 X93.186 Y73.609 E13.31914
G1 X95.811 Y72.69 E13.41165
G1 X96.396 Y72.494 E13.43217
G1 X96.728 Y72.39 E13.44374
G1 X97.969 Y72.023 E13.48678
G1 X98.174 Y71.965 E13.49387
G1 X100.548 Y71.315 E13.57573
G1 X101.284 Y71.125 E13.60102
G1 X101.608 Y71.047 E13.6121
G1 X101.977 Y70.964 E13.62468
G1 X102.255 Y70.906 E13.63413
G1 X105.161 Y70.335 E13.73263
G1 X105.924 Y70.196 E13.75842
G1 X106.192 Y70.15 E13.76747
G1 X106.346 Y70.126 E13.77265
G1 X106.641 Y70.085 E13.78256
G1 X107.074 Y70.03 E13.79707
G1 X109.827 Y69.704 E13.88928
G1 X110.562 Y69.628 E13.91386
G1 X110.989 Y69.592 E13.92811
G1 X111.279 Y69.573 E13.93777
G1 X111.758 Y69.55 E13.95372
G1 X113.885 Y69.464 E14.02453
G1 X114.992 Y69.431 E14.06136
G1 X116.947 Y69.394 E14.1264
G1 X117.344 Y69.39 E14.1396
G1 X117.569 Y69.39 E14.14709
G1 X118.414 Y69.4 E14.17519
G1 X120.743 Y69.455 E14.25268
G1 X122.552 Y69.531 E14.3129
G1 X122.749 Y69.541 E14.31946
G1 X126.078 Y69.744 E14.43039
G1 X126.64 Y69.786 E14.44913
G1 X127.278 Y69.854 E14.47047
G1 X128.308 Y69.994 E14.50504
G1 X128.507 Y70.023 E14.51173
G1 X130.688 Y70.362 E14.58514
G1 X131.302 Y70.465 E14.60585
G1 X131.952 Y70.595 E14.6279
G1 X132.858 Y70.806 E14.65884
G1 X135.601 Y71.49 E14.75286
G1 X136.444 Y71.712 E14.78186
G1 X136.711 Y71.787 E14.79108
G1 X137.011 Y71.875 E14.80148
G1 X137.339 Y71.977 E14.81291
G1 X140.847 Y73.132 E14.93574
G1 X141.264 Y73.276 E14.95042
G1 X141.576 Y73.389 E14.96145
G1 X142.671 Y73.806 E15.00043
G1 X142.868 Y73.883 E15.00746
G1 X145.869 Y75.096 E15.11512
G1 X146.333 Y75.292 E15.13187
G1 X146.62 Y75.419 E15.14231
G1 X147.625 Y75.879 E15.17907
G1 X147.806 Y75.964 E15.18572
G1 X151.506 Y77.744 E15.32229
G1 X151.836 Y77.909 E15.33456
G1 X152.145 Y78.07 E15.34615
G1 X153.504 Y78.808 E15.39758
G1 X157.019 Y80.804 E15.53203
G1 X157.204 Y80.912 E15.53915
G1 X158.959 Y81.956 E15.60707
G1 X159.137 Y82.064 E15.61399
G1 X161.746 Y83.686 E15.71617
G1 X163.486 Y84.811 E15.78509
G1 X163.651 Y84.92 E15.79166
G1 X166.293 Y86.703 E15.89768
G1 X167.082 Y87.253 E15.92967
G1 X167.339 Y87.438 E15.9402
G1 X169.968 Y89.39 E16.04911
G1 X170.758 Y89.995 E16.0822
G1 X170.979 Y90.168 E16.09154
G1 X171.478 Y90.574 E16.11293
G1 X173.641 Y92.371 E16.20646
G1 X174.098 Y92.762 E16.22647
G1 X174.336 Y92.971 E16.237
G1 X175.048 Y93.618 E16.269
G1 X176.922 Y95.378 E16.35451
G1 X177.161 Y95.609 E16.36556
G1 X177.419 Y95.868 E16.37772
G1 X178.345 Y96.827 E16.42206
G1 X178.496 Y96.986 E16.42935
G1 X179.844 Y98.443 E16.49537
G1 X180.322 Y98.974 E16.51914
G1 X180.521 Y99.201 E16.52918
G1 X180.691 Y99.401 E16.53791
G1 X180.984 Y99.759 E16.55329
G1 X182.548 Y101.723 E16.6368
G1 X182.948 Y102.24 E16.65854
G1 X183.13 Y102.482 E16.66861
G1 X183.251 Y102.648 E16.67544
G1 X183.555 Y103.082 E16.69307
G1 X184.805 Y104.923 E16.76708
G1 X185.288 Y105.655 E16.79625
G1 X185.758 Y106.439 E16.82665
G1 X186.12 Y107.108 E16.85195
G1 X186.398 Y107.64 E16.87192
G1 X186.798 Y108.434 E16.90149
G1 X187.176 Y109.273 E16.93209
G1 X187.355 Y109.758 E16.94929
G1 X187.461 Y110.067 E16.96015
G1 X187.578 Y110.427 E16.97274
G1 X187.832 Y111.268 E17.00196
G1 X188.031 Y111.959 E17.02588
G1 X188.247 Y112.853 E17.05647
G1 X188.376 Y113.682 E17.08437
G1 X188.403 Y113.917 E17.09224
G1 X188.432 Y114.202 E17.10177
G1 X188.459 Y114.519 E17.11235
G1 X188.511 Y115.205 E17.13523
G1 X188.56 Y115.971 E17.16076
G1 X188.579 Y116.892 E17.1914
G1 X188.523 Y117.762 E17.2204
G1 X188.471 Y118.235 E17.23622
G1 X188.43 Y118.552 E17.24686
G1 X188.309 Y119.41 E17.27568
G1 X188.211 Y120.048 E17.29714
G1 X188.032 Y120.951 E17.32776
G1 X187.859 Y121.577 E17.34936
G1 X187.546 Y122.587 E17.38453
G1 X187.357 Y123.165 E17.40476
G1 X187.076 Y123.979 E17.4334
G1 X186.72 Y124.875 E17.46547
G1 X186.579 Y125.18 E17.47664
G1 X186.345 Y125.672 E17.49476
G1 X185.75 Y126.884 E17.53967
G1 X185.506 Y127.366 E17.55764
