;FLAVOR:Marlin
;TIME:24449
;Filament used: 17.8043m
;Layer height: 0.2
;MINX:13.439
;MINY:49.384
;MINZ:0.2
;MAXX:221.555
;MAXY:185.616
;MAXZ:8
;Generated with Cura_SteamEngine 4.11.0
M140 S60
M105
M190 S60
M104 S200
M105
M109 S200
M82 ;absolute extrusion mode
M201 X500.00 Y500.00 Z100.00 E5000.00 ;Setup machine max acceleration
M203 X500.00 Y500.00 Z10.00 E50.00 ;Setup machine max feedrate
M204 P500.00 R1000.00 T500.00 ;Setup Print/Retract/Travel acceleration
M205 X8.00 Y8.00 Z0.40 E5.00 ;Setup Jerk
M220 S100 ;Reset Feedrate
M221 S100 ;Reset Flowrate

G28 ;Home

G92 E0 ;Reset Extruder
G1 Z2.0 F3000 ;Move Z Axis up
G1 X10.1 Y20 Z0.28 F5000.0 ;Move to start position
G1 X10.1 Y200.0 Z0.28 F1500.0 E15 ;Draw the first line
G1 X10.4 Y200.0 Z0.28 F5000.0 ;Move to side a little
G1 X10.4 Y20 Z0.28 F1500.0 E30 ;Draw the second line
G92 E0 ;Reset Extruder
G1 Z2.0 F3000 ;Move Z Axis up

G92 E0
G92 E0
G1 F1500 E-6.5
;LAYER_COUNT:40
;LAYER:0
M107
G0 F6000 X43.089 Y51.726 Z0.2
;TYPE:SKIRT
G0 X44.658 Y50.702 E0.06237
G1 X45.503 Y50.294 E0.09358
G1 X46.379 Y49.959 E0.12478
G1 X47.281 Y49.7 E0.15599
G1 X48.201 Y49.519 E0.18718
G1 X49.554 Y49.397 E0.23236
G1 X49.875 Y49.388 E0.24304
G1 X50.183 Y49.384 E0.25328
G1 X94.135 Y49.384 E1.71513
G1 X94.993 Y49.395 E1.74367
G1 X95.929 Y49.448 E1.77485
G1 X97.135 Y49.637 E1.81546
G1 X98.603 Y49.951 E1.86539
G1 X98.952 Y50.028 E1.87727
G1 X101.465 Y50.52 E1.96244
G1 X103.972 Y50.939 E2.04698
G1 X106.442 Y51.279 E2.12991
G1 X108.931 Y51.551 E2.21319
G1 X111.475 Y51.756 E2.29808
G1 X113.97 Y51.887 E2.38117
G1 X116.489 Y51.946 E2.46498
G1 X119.011 Y51.936 E2.54886
G1 X121.506 Y51.854 E2.63189
G1 X124.057 Y51.698 E2.7169
G1 X126.527 Y51.477 E2.79938
G1 X129.056 Y51.178 E2.88408
G1 X131.508 Y50.818 E2.96651
G1 X133.989 Y50.382 E3.05029
G1 X137.382 Y49.667 E3.16562
G1 X137.76 Y49.593 E3.17843
G1 X138.687 Y49.455 E3.2096
G1 X139.495 Y49.399 E3.23654
G1 X139.813 Y49.389 E3.24712
G1 X140.159 Y49.384 E3.25863
G1 X184.66 Y49.385 E4.73874
G1 X185.362 Y49.395 E4.76209
G1 X186.298 Y49.448 E4.79327
G1 X187.226 Y49.581 E4.82445
G1 X188.14 Y49.793 E4.85566
G1 X189.033 Y50.081 E4.88687
G1 X189.897 Y50.445 E4.91805
G1 X190.728 Y50.881 E4.94926
G1 X191.518 Y51.386 E4.98045
G1 X192.262 Y51.956 E5.01162
G1 X192.955 Y52.588 E5.04282
G1 X193.592 Y53.277 E5.07403
G1 X194.168 Y54.017 E5.10522
G1 X194.651 Y54.757 E5.13461
G1 X195.315 Y55.869 E5.17768
G1 X196.691 Y58.103 E5.26495
G1 X198.059 Y60.19 E5.34795
G1 X199.502 Y62.258 E5.43182
G1 X200.988 Y64.266 E5.5149
G1 X202.553 Y66.26 E5.59921
G1 X204.176 Y68.21 E5.6836
G1 X205.826 Y70.085 E5.76667
G1 X207.543 Y71.926 E5.8504
G1 X209.306 Y73.714 E5.93391
G1 X211.129 Y75.459 E6.01785
G1 X212.992 Y77.146 E6.10144
G1 X214.944 Y78.814 E6.18684
G1 X216.535 Y80.106 E6.25501
G1 X217.403 Y80.795 E6.29186
G1 X218.112 Y81.409 E6.32306
G1 X218.766 Y82.081 E6.35425
G1 X219.361 Y82.806 E6.38544
G1 X219.891 Y83.58 E6.41664
G1 X220.354 Y84.395 E6.44782
G1 X220.745 Y85.248 E6.47903
G1 X221.063 Y86.13 E6.51021
G1 X221.304 Y87.036 E6.54139
G1 X221.467 Y87.96 E6.5726
G1 X221.551 Y88.894 E6.60379
G1 X221.555 Y89.832 E6.63499
G1 X221.479 Y90.767 E6.66619
G1 X221.267 Y91.942 E6.7059
G1 X221.196 Y92.244 E6.71622
G1 X220.637 Y94.774 E6.8024
G1 X220.151 Y97.298 E6.88789
G1 X219.756 Y99.745 E6.97033
G1 X219.425 Y102.222 E7.05345
G1 X219.162 Y104.738 E7.13759
G1 X218.967 Y107.273 E7.22215
G1 X218.849 Y109.744 E7.30443
G1 X218.799 Y112.275 E7.38863
G1 X218.822 Y114.829 E7.47358
G1 X218.913 Y117.29 E7.55549
G1 X219.079 Y119.838 E7.64041
G1 X219.315 Y122.346 E7.7242
G1 X219.619 Y124.83 E7.80743
G1 X219.995 Y127.317 E7.89109
G1 X220.096 Y127.886 E7.91031
G1 X220.248 Y128.821 E7.94182
G1 X220.359 Y129.752 E7.973
G1 X220.391 Y130.69 E8.00422
G1 X220.342 Y131.626 E8.03539
G1 X220.213 Y132.555 E8.06659
G1 X220.006 Y133.47 E8.09779
G1 X219.722 Y134.364 E8.12899
G1 X219.363 Y135.23 E8.16017
G1 X218.931 Y136.063 E8.19138
G1 X218.43 Y136.855 E8.22255
G1 X217.863 Y137.602 E8.25374
G1 X217.493 Y138.026 E8.27246
G1 X216.681 Y138.91 E8.31238
G1 X214.946 Y140.85 E8.39894
G1 X213.32 Y142.777 E8.4828
G1 X211.757 Y144.737 E8.56618
G1 X210.24 Y146.756 E8.65018
G1 X208.767 Y148.835 E8.73492
G1 X207.402 Y150.882 E8.81676
G1 X206.042 Y153.052 E8.90193
G1 X204.786 Y155.19 E8.98441
G1 X203.555 Y157.425 E9.06927
G1 X202.409 Y159.653 E9.15261
G1 X201.329 Y161.91 E9.23583
G1 X200.305 Y164.214 E9.31968
G1 X199.332 Y166.578 E9.40471
G1 X198.447 Y168.914 E9.4878
G1 X197.619 Y171.309 E9.57208
G1 X196.89 Y173.619 E9.65265
G1 X196.173 Y176.143 E9.73992
G1 X195.95 Y177.006 E9.76956
G1 X195.813 Y177.507 E9.78684
G1 X195.528 Y178.401 E9.81805
G1 X195.167 Y179.266 E9.84922
G1 X194.734 Y180.098 E9.88042
G1 X194.231 Y180.89 E9.91162
G1 X193.663 Y181.636 E9.94281
G1 X193.034 Y182.331 E9.97398
G1 X192.347 Y182.97 E10.00519
G1 X191.608 Y183.549 E10.03642
G1 X190.823 Y184.062 E10.06761
G1 X189.998 Y184.506 E10.09877
G1 X189.137 Y184.879 E10.12998
G1 X188.247 Y185.176 E10.16118
G1 X187.336 Y185.397 E10.19236
G1 X186.409 Y185.54 E10.22356
G1 X185.559 Y185.6 E10.2519
G1 X185.281 Y185.609 E10.26115
G1 X184.918 Y185.615 E10.27323
G1 X143.304 Y185.587 E11.65731
G1 X142.593 Y185.576 E11.68096
G1 X141.383 Y185.49 E11.72131
G1 X140.129 Y185.259 E11.76372
G1 X138.644 Y184.894 E11.81458
G1 X138.413 Y184.835 E11.82251
G1 X135.925 Y184.267 E11.90739
G1 X133.522 Y183.793 E11.98886
G1 X130.994 Y183.366 E12.07413
G1 X128.507 Y183.018 E12.15765
G1 X126.019 Y182.742 E12.24091
G1 X123.491 Y182.533 E12.32528
G1 X120.971 Y182.397 E12.40922
G1 X118.484 Y182.332 E12.49196
G1 X115.96 Y182.339 E12.57591
G1 X113.439 Y182.416 E12.6598
G1 X110.906 Y182.566 E12.7442
G1 X108.437 Y182.782 E12.82663
G1 X105.898 Y183.076 E12.91164
G1 X103.446 Y183.432 E12.99405
G1 X100.922 Y183.87 E13.07925
G1 X98.522 Y184.359 E13.16072
G1 X95.374 Y185.101 E13.26829
G1 X94.736 Y185.262 E13.29017
G1 X93.818 Y185.453 E13.32136
G1 X92.887 Y185.565 E13.35255
G1 X92.247 Y185.596 E13.37386
G1 X91.293 Y185.614 E13.4056
G1 X91.085 Y185.616 E13.41251
G1 X50.403 Y185.615 E14.7656
G1 X49.704 Y185.605 E14.78885
G1 X48.767 Y185.551 E14.82007
G1 X47.839 Y185.419 E14.85125
G1 X46.925 Y185.207 E14.88245
G1 X46.033 Y184.918 E14.91364
G1 X45.168 Y184.555 E14.94484
G1 X44.338 Y184.119 E14.97602
G1 X43.548 Y183.614 E15.00721
G1 X42.803 Y183.043 E15.03843
G1 X42.11 Y182.411 E15.06962
G1 X41.473 Y181.723 E15.10081
G1 X40.898 Y180.982 E15.132
G1 X40.387 Y180.196 E15.16319
G1 X39.945 Y179.368 E15.1944
G1 X39.576 Y178.507 E15.22556
G1 X39.219 Y177.388 E15.26463
G1 X39.073 Y176.828 E15.28387
G1 X38.374 Y174.303 E15.37101
G1 X37.634 Y171.892 E15.4549
G1 X36.82 Y169.488 E15.53931
G1 X35.967 Y167.188 E15.6209
G1 X35.006 Y164.8 E15.70652
G1 X34.012 Y162.522 E15.78918
G1 X32.928 Y160.215 E15.87396
G1 X31.8 Y157.981 E15.9572
G1 X30.609 Y155.781 E16.04041
G1 X29.35 Y153.605 E16.12402
G1 X28.009 Y151.429 E16.20904
G1 X26.654 Y149.366 E16.29113
G1 X25.193 Y147.273 E16.37603
G1 X23.702 Y145.26 E16.45934
G1 X22.154 Y143.287 E16.54275
G1 X20.537 Y141.344 E16.62683
G1 X18.432 Y138.969 E16.73238
G1 X17.784 Y138.262 E16.76428
G1 X17.18 Y137.544 E16.79549
G1 X16.64 Y136.778 E16.82666
G1 X16.167 Y135.968 E16.85786
G1 X15.765 Y135.12 E16.88907
G1 X15.437 Y134.242 E16.92024
G1 X15.184 Y133.339 E16.95143
G1 X15.01 Y132.417 E16.98264
G1 X14.914 Y131.484 E17.01384
G1 X14.899 Y130.546 E17.04504
G1 X14.963 Y129.611 E17.07621
G1 X15.04 Y129.053 E17.09494
G1 X15.201 Y128.07 E17.12808
G1 X15.583 Y125.515 E17.214
G1 X15.887 Y123 E17.29826
G1 X16.117 Y120.491 E17.38206
G1 X16.277 Y117.976 E17.46588
G1 X16.365 Y115.48 E17.54894
G1 X16.382 Y112.958 E17.63283
G1 X16.328 Y110.432 E17.71686
G1 X16.202 Y107.892 E17.80145
G1 X16.008 Y105.409 E17.88428
G1 X15.742 Y102.91 E17.96787
G1 X15.405 Y100.427 E18.05121
G1 X14.994 Y97.922 E18.13564
G1 X14.52 Y95.47 E18.21871
G1 X13.964 Y92.979 E18.3036
G1 X13.881 Y92.639 E18.31524
G1 X13.72 Y91.946 E18.3389
G1 X13.547 Y91.025 E18.37007
G1 X13.453 Y90.091 E18.40129
G1 X13.439 Y89.154 E18.43246
G1 X13.505 Y88.218 E18.46367
G1 X13.65 Y87.291 E18.49487
G1 X13.874 Y86.381 E18.52604
G1 X14.174 Y85.492 E18.55725
G1 X14.549 Y84.633 E18.58843
G1 X14.996 Y83.808 E18.61963
G1 X15.512 Y83.025 E18.65082
G1 X16.092 Y82.288 E18.68202
G1 X16.733 Y81.603 E18.71322
G1 X17.626 Y80.818 E18.75276
G1 X18.237 Y80.336 E18.77865
G1 X20.292 Y78.673 E18.86657
G1 X22.169 Y77.065 E18.94878
G1 X24.065 Y75.342 E19.03399
G1 X25.866 Y73.611 E19.11707
G1 X27.639 Y71.809 E19.20116
G1 X29.357 Y69.96 E19.2851
G1 X30.993 Y68.097 E19.36757
G1 X32.624 Y66.128 E19.45261
G1 X34.174 Y64.147 E19.53627
G1 X35.661 Y62.132 E19.61956
G1 X37.099 Y60.062 E19.70339
G1 X38.453 Y57.994 E19.7856
G1 X40.347 Y54.862 E19.90734
G1 X40.579 Y54.491 E19.92189
G1 X41.116 Y53.722 E19.95309
G1 X41.716 Y53.001 E19.98429
G1 X42.375 Y52.334 E20.01547
G1 X43.089 Y51.726 E20.04666
G0 F6000 X43.389 Y51.999
G1 F1200 X44.141 Y51.469 E20.07726
G1 X44.937 Y51.006 E20.10789
G1 X45.77 Y50.615 E20.1385
G1 X46.634 Y50.296 E20.16913
G1 X47.523 Y50.054 E20.19977
G1 X48.428 Y49.89 E20.23037
G1 X49.565 Y49.797 E20.26831
G1 X49.886 Y49.788 E20.27899
G1 X50.183 Y49.784 E20.28887
G1 X94.135 Y49.784 E21.75072
G1 X94.987 Y49.795 E21.77906
G1 X95.906 Y49.848 E21.80967
G1 X97.051 Y50.028 E21.84823
G1 X98.517 Y50.341 E21.89808
G1 X98.918 Y50.429 E21.91174
G1 X101.393 Y50.914 E21.99562
G1 X103.884 Y51.33 E22.07962
G1 X106.42 Y51.68 E22.16477
G1 X108.888 Y51.949 E22.24734
G1 X111.456 Y52.156 E22.33303
G1 X113.942 Y52.286 E22.41583
G1 X116.481 Y52.346 E22.5003
G1 X119.025 Y52.336 E22.58491
G1 X121.545 Y52.253 E22.66877
G1 X124.047 Y52.1 E22.75215
G1 X126.574 Y51.874 E22.83653
G1 X129.089 Y51.577 E22.92076
G1 X131.598 Y51.208 E23.00511
G1 X134.079 Y50.772 E23.08889
G1 X137.464 Y50.059 E23.20395
G1 X137.835 Y49.986 E23.21652
G1 X138.746 Y49.851 E23.24715
G1 X139.508 Y49.799 E23.27256
G1 X139.826 Y49.789 E23.28314
G1 X140.159 Y49.784 E23.29422
G1 X184.654 Y49.785 E24.77413
G1 X185.356 Y49.795 E24.79748
G1 X186.275 Y49.848 E24.82809
G1 X187.186 Y49.981 E24.85871
G1 X188.082 Y50.192 E24.88933
G1 X188.957 Y50.48 E24.91997
G1 X189.803 Y50.843 E24.95059
G1 X190.614 Y51.278 E24.9812
G1 X191.385 Y51.782 E25.01183
G1 X192.109 Y52.35 E25.04244
G1 X192.781 Y52.98 E25.07308
G1 X193.395 Y53.665 E25.10367
G1 X193.948 Y54.401 E25.13429
G1 X194.307 Y54.962 E25.15644
G1 X194.973 Y56.078 E25.19967
G1 X196.343 Y58.301 E25.28652
G1 X197.725 Y60.41 E25.37039
G1 X199.178 Y62.492 E25.45483
G1 X200.681 Y64.522 E25.53884
G1 X202.238 Y66.507 E25.62275
G1 X203.866 Y68.464 E25.70742
G1 X205.527 Y70.351 E25.79103
G1 X207.236 Y72.184 E25.87438
G1 X209.045 Y74.018 E25.96006
G1 X210.851 Y75.747 E26.04322
G1 X212.729 Y77.447 E26.12747
G1 X214.673 Y79.108 E26.21252
G1 X216.273 Y80.408 E26.28108
G1 X217.155 Y81.108 E26.31854
G1 X217.85 Y81.711 E26.34914
G1 X218.491 Y82.372 E26.37976
G1 X219.071 Y83.087 E26.41039
G1 X219.588 Y83.849 E26.44101
G1 X220.036 Y84.653 E26.47163
G1 X220.413 Y85.493 E26.50225
G1 X220.716 Y86.362 E26.53286
G1 X220.942 Y87.255 E26.5635
G1 X221.09 Y88.164 E26.59413
G1 X221.158 Y89.082 E26.62474
G1 X221.146 Y90.002 E26.65535
G1 X221.055 Y90.918 E26.68596
G1 X220.878 Y91.85 E26.71751
G1 X220.811 Y92.131 E26.72712
G1 X220.239 Y94.725 E26.81547
G1 X219.758 Y97.224 E26.90011
G1 X219.364 Y99.665 E26.98235
G1 X219.026 Y102.195 E27.06725
G1 X218.763 Y104.703 E27.15112
G1 X218.57 Y107.217 E27.23499
G1 X218.449 Y109.753 E27.31943
G1 X218.399 Y112.27 E27.40316
G1 X218.422 Y114.812 E27.48771
G1 X218.515 Y117.33 E27.57152
G1 X218.681 Y119.869 E27.65615
G1 X218.918 Y122.396 E27.74056
G1 X219.22 Y124.862 E27.8232
G1 X219.601 Y127.382 E27.90796
G1 X219.702 Y127.95 E27.92715
G1 X219.854 Y128.885 E27.95866
G1 X219.962 Y129.799 E27.98927
G1 X219.99 Y130.72 E28.01992
G1 X219.939 Y131.639 E28.05053
G1 X219.807 Y132.55 E28.08115
G1 X219.598 Y133.447 E28.11178
G1 X219.311 Y134.321 E28.14238
G1 X218.949 Y135.168 E28.17301
G1 X218.516 Y135.98 E28.20362
G1 X218.013 Y136.752 E28.23427
G1 X217.198 Y137.756 E28.27728
G1 X216.408 Y138.616 E28.31612
G1 X214.626 Y140.609 E28.40504
G1 X213.021 Y142.511 E28.48781
G1 X211.424 Y144.515 E28.57304
G1 X209.926 Y146.506 E28.65591
G1 X208.464 Y148.571 E28.74006
G1 X207.037 Y150.71 E28.82559
G1 X205.711 Y152.827 E28.90867
G1 X204.424 Y155.017 E28.99316
G1 X203.206 Y157.229 E29.07714
G1 X202.065 Y159.448 E29.16013
G1 X200.947 Y161.783 E29.24624
G1 X199.94 Y164.047 E29.32865
G1 X198.964 Y166.42 E29.41399
G1 X198.07 Y168.778 E29.49787
G1 X197.247 Y171.162 E29.58175
G1 X196.49 Y173.56 E29.66539
G1 X195.796 Y176.003 E29.74986
G1 X195.565 Y176.901 E29.7807
G1 X195.428 Y177.402 E29.79798
G1 X195.146 Y178.279 E29.82862
G1 X194.79 Y179.128 E29.85924
G1 X194.362 Y179.942 E29.88982
G1 X193.864 Y180.717 E29.92046
G1 X193.301 Y181.446 E29.9511
G1 X192.677 Y182.122 E29.9817
G1 X191.997 Y182.743 E30.01233
G1 X191.265 Y183.301 E30.04294
G1 X190.488 Y183.795 E30.07356
G1 X189.67 Y184.219 E30.10421
G1 X188.82 Y184.57 E30.13479
G1 X187.941 Y184.846 E30.16544
G1 X187.042 Y185.045 E30.19606
G1 X186.13 Y185.165 E30.22666
G1 X185.546 Y185.2 E30.24612
G1 X185.268 Y185.209 E30.25537
G1 X184.918 Y185.215 E30.26701
G1 X143.31 Y185.187 E31.6509
G1 X142.599 Y185.176 E31.67455
G1 X141.432 Y185.093 E31.71346
G1 X140.224 Y184.87 E31.75432
G1 X138.743 Y184.507 E31.80503
G1 X138.487 Y184.441 E31.81383
G1 X136.026 Y183.879 E31.89779
G1 X133.553 Y183.392 E31.98162
G1 X131.085 Y182.975 E32.06487
G1 X128.535 Y182.618 E32.15051
G1 X126.06 Y182.344 E32.23333
G1 X123.51 Y182.133 E32.31843
G1 X121.004 Y181.997 E32.40191
G1 X118.493 Y181.932 E32.48545
G1 X115.948 Y181.939 E32.5701
G1 X113.437 Y182.016 E32.65365
G1 X110.883 Y182.167 E32.73875
G1 X108.358 Y182.387 E32.82305
G1 X105.866 Y182.677 E32.90649
G1 X103.357 Y183.04 E32.99081
G1 X100.88 Y183.471 E33.07443
G1 X98.41 Y183.973 E33.15827
G1 X95.31 Y184.704 E33.2642
G1 X94.638 Y184.874 E33.28726
G1 X93.737 Y185.061 E33.31786
G1 X92.822 Y185.169 E33.34851
G1 X92.239 Y185.196 E33.36792
G1 X91.285 Y185.214 E33.39965
G1 X91.085 Y185.216 E33.40631
G1 X50.408 Y185.215 E34.75923
G1 X49.709 Y185.205 E34.78248
G1 X48.79 Y185.152 E34.8131
G1 X47.879 Y185.019 E34.84372
G1 X46.983 Y184.808 E34.87433
G1 X46.109 Y184.52 E34.90494
G1 X45.263 Y184.157 E34.93556
G1 X44.451 Y183.722 E34.9662
G1 X43.681 Y183.218 E34.99681
G1 X42.957 Y182.649 E35.02743
G1 X42.285 Y182.02 E35.05805
G1 X41.67 Y181.334 E35.08869
G1 X41.117 Y180.598 E35.11931
G1 X40.63 Y179.817 E35.14992
G1 X40.213 Y178.996 E35.18055
G1 X39.868 Y178.142 E35.21118
G1 X39.606 Y177.287 E35.24093
G1 X39.453 Y176.702 E35.26104
G1 X38.766 Y174.217 E35.34679
G1 X38.008 Y171.752 E35.43257
G1 X37.198 Y169.358 E35.51662
G1 X36.337 Y167.035 E35.59902
G1 X35.373 Y164.639 E35.68492
G1 X34.383 Y162.371 E35.76723
G1 X33.283 Y160.03 E35.85326
G1 X32.158 Y157.803 E35.93624
G1 X30.964 Y155.597 E36.01967
G1 X29.678 Y153.374 E36.10509
G1 X28.357 Y151.23 E36.18885
G1 X26.984 Y149.139 E36.27205
G1 X25.51 Y147.028 E36.35768
G1 X24.023 Y145.02 E36.44079
G1 X22.461 Y143.03 E36.52493
G1 X20.861 Y141.107 E36.60814
G1 X18.727 Y138.699 E36.71515
G1 X18.079 Y137.992 E36.74705
G1 X17.487 Y137.287 E36.77767
G1 X16.959 Y136.533 E36.80828
G1 X16.498 Y135.736 E36.83891
G1 X16.108 Y134.902 E36.86953
G1 X15.791 Y134.037 E36.90017
G1 X15.551 Y133.149 E36.93076
G1 X15.389 Y132.242 E36.96141
G1 X15.306 Y131.325 E36.99203
G1 X15.304 Y130.405 E37.02263
G1 X15.434 Y129.118 E37.06566
G1 X15.596 Y128.128 E37.09902
G1 X15.981 Y125.55 E37.18572
G1 X16.288 Y123.014 E37.27068
G1 X16.514 Y120.555 E37.35281
G1 X16.677 Y117.979 E37.43866
G1 X16.765 Y115.497 E37.52126
G1 X16.782 Y112.952 E37.60591
G1 X16.728 Y110.403 E37.69071
G1 X16.604 Y107.908 E37.7738
G1 X16.406 Y105.375 E37.8583
G1 X16.137 Y102.846 E37.94289
G1 X15.798 Y100.344 E38.02687
G1 X15.389 Y97.853 E38.11083
G1 X14.91 Y95.379 E38.19464
G1 X14.363 Y92.927 E38.2782
G1 X14.271 Y92.549 E38.29114
G1 X14.11 Y91.856 E38.31481
G1 X13.941 Y90.951 E38.34543
G1 X13.851 Y90.035 E38.37604
G1 X13.841 Y89.114 E38.40667
G1 X13.91 Y88.196 E38.43729
G1 X14.059 Y87.287 E38.46793
G1 X14.287 Y86.395 E38.49855
G1 X14.591 Y85.526 E38.52917
